assets/icons/application/bag-filled.svg

<?xml version="1.0" encoding="UTF-8" standalone="no"?>
<svg
   viewBox="0 0 24 24"
   width="24"
   height="24"
   fill="#808080"
   version="1.1"
   id="svg10"
   sodipodi:docname="bag-filled.svg"
   inkscape:version="1.2 (1:1.2.1+202207142221+cd75a1ee6d)"
   xmlns:inkscape="http://www.inkscape.org/namespaces/inkscape"
   xmlns:sodipodi="http://sodipodi.sourceforge.net/DTD/sodipodi-0.dtd"
   xmlns="http://www.w3.org/2000/svg"
   xmlns:svg="http://www.w3.org/2000/svg">
  <defs
     id="defs14" />
  <sodipodi:namedview
     id="namedview12"
     pagecolor="#ffffff"
     bordercolor="#666666"
     borderopacity="1.0"
     inkscape:pageshadow="2"
     inkscape:pageopacity="0.0"
     inkscape:pagecheckerboard="0"
     showgrid="true"
     inkscape:zoom="24.09375"
     inkscape:cx="6.4747082"
     inkscape:cy="9.5875486"
     inkscape:window-width="1920"
     inkscape:window-height="1043"
     inkscape:window-x="0"
     inkscape:window-y="0"
     inkscape:window-maximized="1"
     inkscape:current-layer="svg10"
     inkscape:showpageshadow="2"
     inkscape:deskcolor="#d1d1d1">
    <inkscape:grid
       type="xygrid"
       id="grid16" />
    <inkscape:grid
       type="xygrid"
       id="grid656"
       dotted="true"
       spacingx="0.5"
       spacingy="0.5"
       empspacing="10" />
  </sodipodi:namedview>
  <path
     id="path712"
     style="color:#000000;fill:#808080;fill-rule:evenodd;stroke-linecap:round;stroke-linejoin:round;-inkscape-stroke:none"
     d="M 12 2 C 9.748375 2 7.8978106 3.7481435 7.5566406 6 L 5 6 C 3.3466554 6 2 7.3466554 2 9 L 2 19 C 2 20.653344 3.3466554 22 5 22 L 19 22 C 20.653344 22 22 20.653344 22 19 L 22 9 C 22 7.3466554 20.653344 6 19 6 L 16.443359 6 C 16.102191 3.7481435 14.251626 2 12 2 z M 12 3 C 13.6858 3 15.105867 4.2744636 15.429688 6 L 8.5703125 6 C 8.8941316 4.2744636 10.3142 3 12 3 z M 10.960938 8 L 13.021484 8 C 13.425524 8.8542524 13.818267 9.7203164 14.199219 10.597656 C 14.580167 11.474996 14.960845 12.397492 15.341797 13.367188 C 15.554707 13.893198 15.769884 14.439552 15.986328 15 L 16.5 15 C 17.330997 15 18 15.669003 18 16.5 C 18 17.126992 17.618143 17.66194 17.074219 17.886719 C 17.322946 18.561619 17.575673 19.259249 17.835938 20 L 15.480469 20 C 15.318853 19.526696 15.151672 19.059416 14.978516 18.597656 C 14.904691 18.400792 14.831448 18.201064 14.759766 18 L 9.1386719 18 C 9.0663206 18.205924 8.992503 18.411509 8.9179688 18.615234 L 8.4335938 20 L 6.1640625 20 C 6.424562 19.258578 6.6749189 18.560217 6.9199219 17.884766 C 6.3790459 17.658612 6 17.124794 6 16.5 C 6 15.669003 6.6690024 15 7.5 15 L 7.9921875 15 C 8.2057095 14.439514 8.4163861 13.893232 8.6230469 13.367188 C 9.0155413 12.397492 9.4022527 11.474996 9.7832031 10.597656 C 10.164155 9.7203164 10.556898 8.8542524 10.960938 8 z M 11.947266 10.320312 C 11.681754 10.932144 11.37757 11.677344 11.03125 12.554688 C 10.742953 13.310221 10.439055 14.133114 10.125 15 L 13.771484 15 C 13.455766 14.131005 13.146102 13.303118 12.847656 12.537109 C 12.50134 11.648225 12.20123 10.909056 11.947266 10.320312 z M 7.5 16 C 7.2230006 16 7 16.223 7 16.5 C 7 16.777 7.2230006 17 7.5 17 L 16.5 17 C 16.777 17 17 16.777 17 16.5 C 17 16.223 16.777 16 16.5 16 L 7.5 16 z " />
  <g
     id="g1833"
     style="display:inline;stroke-width:1.15789"
     transform="matrix(0.86363636,0,0,0.86363636,-437.09094,-165.59091)" />
  <g
     aria-label="A"
     id="text619"
     style="font-weight:500;font-size:17.316px;line-height:1.25;font-family:Ubuntu;-inkscape-font-specification:'Ubuntu, Medium';letter-spacing:0px;word-spacing:0px;fill:#ffff00" />
</svg>

<svg width="24" height="24" fill="gray" xmlns="http://www.w3.org/2000/svg"><path style="color:#000;fill:gray;stroke-linecap:round;stroke-linejoin:round;-inkscape-stroke:none" d="M12 2C9.748 2 7.898 3.748 7.557 6H5C3.347 6 2 7.347 2 9v10c0 1.653 1.347 3 3 3h14c1.653 0 3-1.347 3-3V9c0-1.653-1.347-3-3-3h-2.557c-.34-2.252-2.191-4-4.443-4zm0 1c1.686 0 3.106 1.274 3.43 3H8.57c.324-1.726 1.744-3 3.43-3zm-1.04 5h2.061a84.922 84.922 0 0 1 2.32 5.367c.214.526.429 1.073.645 1.633h.514c.831 0 1.5.669 1.5 1.5 0 .627-.382 1.162-.926 1.387.249.675.502 1.372.762 2.113H15.48a50.12 50.12 0 0 0-.501-1.402 39.066 39.066 0 0 1-.22-.598H9.14c-.073.206-.146.412-.221.615L8.434 20h-2.27c.26-.741.51-1.44.756-2.115A1.498 1.498 0 0 1 6 16.5c0-.831.669-1.5 1.5-1.5h.492c.214-.56.424-1.107.631-1.633.393-.97.78-1.892 1.16-2.77.381-.877.774-1.743 1.178-2.597zm.987 2.32a74.37 74.37 0 0 0-.916 2.235A155.71 155.71 0 0 0 10.125 15h3.646c-.315-.869-.625-1.697-.923-2.463a69.025 69.025 0 0 0-.9-2.217zM7.5 16a.499.499 0 1 0 0 1h9a.499.499 0 1 0 0-1h-9z"/></svg>
